tests/fixtures/sample_preset.xmp
<x:xmpmeta xmlns:x="adobe:ns:meta/" x:xmptk="Adobe XMP Core 7.0-c000 1.000000, 0000/00/00-00:00:00">
 <rdf:RDF xmlns:rdf="http://www.w3.org/1999/02/22-rdf-syntax-ns#">
  <rdf:Description rdf:about=""
    xmlns:crs="http://ns.adobe.com/camera-raw-settings/1.0/"
    crs:ProcessVersion="11.0"
    crs:Temperature="5500"
    crs:Tint="+10"
    crs:Exposure2012="+0.50"
    crs:Contrast2012="+25"
    crs:Highlights2012="-30"
    crs:Shadows2012="+40"
    crs:Whites2012="+15"
    crs:Blacks2012="-10"
    crs:Clarity2012="+20"
    crs:Saturation="+5"
    crs:Vibrance="+15"
    crs:HueAdjustmentRed="+10"
    crs:HueAdjustmentOrange="+5"
    crs:HueAdjustmentYellow="0"
    crs:HueAdjustmentGreen="-5"
    crs:HueAdjustmentAqua="0"
    crs:HueAdjustmentBlue="+8"
    crs:HueAdjustmentPurple="0"
    crs:HueAdjustmentMagenta="-3"
    crs:SaturationAdjustmentRed="+12"
    crs:SaturationAdjustmentOrange="+8"
    crs:SaturationAdjustmentYellow="+5"
    crs:SaturationAdjustmentGreen="-10"
    crs:SaturationAdjustmentAqua="0"
    crs:SaturationAdjustmentBlue="+15"
    crs:SaturationAdjustmentPurple="0"
    crs:SaturationAdjustmentMagenta="+3"
    crs:LuminanceAdjustmentRed="0"
    crs:LuminanceAdjustmentOrange="+10"
    crs:LuminanceAdjustmentYellow="+5"
    crs:LuminanceAdjustmentGreen="0"
    crs:LuminanceAdjustmentAqua="-5"
    crs:LuminanceAdjustmentBlue="-10"
    crs:LuminanceAdjustmentPurple="0"
    crs:LuminanceAdjustmentMagenta="0"
    crs:SplitToningShadowHue="220"
    crs:SplitToningShadowSaturation="15"
    crs:SplitToningHighlightHue="40"
    crs:SplitToningHighlightSaturation="25"
    crs:SplitToningBalance="-20">
   <crs:ToneCurvePV2012>
    <rdf:Seq>
     <rdf:li>0, 0</rdf:li>
     <rdf:li>64, 72</rdf:li>
     <rdf:li>128, 135</rdf:li>
     <rdf:li>192, 188</rdf:li>
     <rdf:li>255, 255</rdf:li>
    </rdf:Seq>
   </crs:ToneCurvePV2012>
   <crs:ToneCurvePV2012Red>
    <rdf:Seq>
     <rdf:li>0, 0</rdf:li>
     <rdf:li>255, 255</rdf:li>
    </rdf:Seq>
   </crs:ToneCurvePV2012Red>
   <crs:ToneCurvePV2012Green>
    <rdf:Seq>
     <rdf:li>0, 0</rdf:li>
     <rdf:li>255, 255</rdf:li>
    </rdf:Seq>
   </crs:ToneCurvePV2012Green>
   <crs:ToneCurvePV2012Blue>
    <rdf:Seq>
     <rdf:li>0, 5</rdf:li>
     <rdf:li>255, 250</rdf:li>
    </rdf:Seq>
   </crs:ToneCurvePV2012Blue>
  </rdf:Description>
 </rdf:RDF>
</x:xmpmeta>
